X:18
T:John Lover's Gone
B:Mainly from Levenson's Festival Tunes, p.116
M:4/4
L:1/4
Z:abc-transcription Josh Larios <hades@elsewhere.org>, 2014.01.15
K:D
f/g/ |: "D"aa f/e/ d | f>gff/g/ | aa/e/ f/d/ e/c/ |1 d>edf/g/ :|2 d>edc/d/ ||
"A"e2e2 | e/f/ e/d/ BA/B/ | "D"ddef | d>edc/d/ |
"A"eeee | fe/d/BA/B/ | "D"ddef | d>ed |]

